assets/unbank.svg

<svg width="766" height="132" viewBox="0 0 766 132" fill="none" xmlns="http://www.w3.org/2000/svg">
<path d="M133.125 66.2404C133.125 79.9554 133.155 93.6703 133.125 107.385C133.095 118.155 126.074 127.311 115.749 130.177C113.696 130.748 111.593 131.008 109.47 131.008C81.9198 131.008 54.3795 131.038 26.8292 130.998C13.6199 130.978 3.20468 120.569 3.18465 107.375C3.14459 79.8652 3.14459 52.3552 3.18465 24.8552C3.18465 11.6612 13.6099 1.2623 26.8192 1.24226C54.3695 1.20219 81.9098 1.20219 109.46 1.24226C122.669 1.2623 133.065 11.6712 133.105 24.8652C133.155 38.6603 133.115 52.4554 133.115 66.2505L133.125 66.2404ZM68.38 33.1603C56.2522 33.1603 44.1145 33.1603 31.9868 33.1603C31.6262 33.1603 31.2657 33.1403 30.9052 33.1603C28.2112 33.3306 26.2484 35.204 26.1883 37.6685C26.1182 40.4736 27.8507 42.4472 30.7049 42.6876C31.4159 42.7477 31.5561 43.0082 31.5561 43.6393C31.5461 55.2705 31.5461 66.9117 31.5561 78.5428C31.5561 79.204 31.3659 79.4945 30.6849 79.7049C28.5017 80.3661 27.9909 82.9108 29.6433 84.4736C30.3944 85.1849 31.2757 85.2049 32.2171 85.2049C56.3223 85.2049 80.4276 85.2049 104.533 85.2049C104.773 85.2049 105.014 85.2049 105.254 85.2049C106.726 85.1548 107.848 84.1931 108.098 82.7705C108.308 81.5483 107.547 80.1758 106.245 79.755C105.604 79.5446 105.474 79.2541 105.474 78.663C105.484 67.0319 105.484 55.3907 105.474 43.7596C105.474 43.0182 105.664 42.7878 106.456 42.6776C110.051 42.1867 111.803 38.3297 109.841 35.3142C108.779 33.6812 107.137 33.1603 105.284 33.1603C92.996 33.1603 80.698 33.1603 68.41 33.1603H68.38ZM68.2598 86.1867C54.9303 86.1867 41.5908 86.1867 28.2613 86.1867C27.38 86.1867 26.4987 86.1466 25.6174 86.1967C22.3727 86.3871 20.4098 89.643 21.902 92.3679C22.603 93.6403 23.8348 94.2213 25.0767 94.8024C34.2 99.0701 43.3233 103.348 52.4467 107.626C56.6128 109.579 60.7889 111.503 64.9249 113.506C66.6274 114.328 68.2498 114.478 69.9623 113.587C71.3143 112.895 72.7163 112.294 74.0983 111.673C81.8096 108.167 89.5309 104.67 97.2422 101.154C102.229 98.8898 107.207 96.5956 112.194 94.3315C113.736 93.6302 114.758 92.5483 114.878 90.8151C115.078 88.0601 113.206 86.1767 110.301 86.1767C96.2908 86.1767 82.2703 86.1767 68.2598 86.1767V86.1867ZM68.1296 20.8579C54.1592 20.8579 40.1888 20.8579 26.2183 20.8579C24.2855 20.8579 23.6446 21.4891 23.6145 23.4426C23.5945 24.5647 23.6145 25.6767 23.6145 26.7987C23.6145 29.4135 24.1753 29.9745 26.7691 29.9745C54.3495 29.9745 81.9298 29.9745 109.51 29.9745C109.791 29.9745 110.071 29.9845 110.351 29.9745C111.783 29.8944 112.484 29.2131 112.504 27.8005C112.525 26.398 112.504 25.0055 112.504 23.6029C112.504 21.3087 112.054 20.8479 109.791 20.8479C95.9002 20.8479 82.0099 20.8479 68.1196 20.8479L68.1296 20.8579Z" fill="#3CCE49"/>
<path d="M593.247 49.6703C592.977 51.3734 593.137 53.0965 593.147 54.7996C593.147 59.3579 593.227 63.9062 593.277 68.4645C593.357 77.0601 593.428 85.6457 593.518 94.2413C593.578 99.6311 593.558 105.031 593.748 110.421C593.928 115.59 589.742 118.576 586.427 118.566C581.731 118.566 578.516 115.41 578.456 110.571C578.386 104.821 578.356 99.0601 578.306 93.3097C578.225 84.714 578.205 76.1284 578.045 67.5328C577.905 60.1394 577.895 52.7459 577.825 45.3525C577.765 38.8807 577.655 32.4089 577.594 25.9372C577.564 22.1102 579.497 19.3151 582.842 18.2231C586.187 17.1312 589.422 18.2732 591.655 21.3588C607.278 42.8679 622.891 64.3771 638.514 85.8761C638.804 86.2769 639.014 86.7678 639.645 87.1384V85.6658C639.645 65.7195 639.645 45.7632 639.645 25.8169C639.645 21.439 642.169 18.3534 646.255 17.6922C650.611 16.9809 654.797 20.4472 654.948 24.8752C654.958 25.1958 654.948 25.5164 654.948 25.837C654.948 54.0182 654.948 82.2095 654.948 110.391C654.948 114.288 653.015 117.183 649.7 118.255C646.345 119.337 643.06 118.145 640.787 115.009C625.214 93.5701 609.651 72.1211 594.079 50.6822C593.828 50.3315 593.658 49.9007 593.247 49.6903C593.207 49.6403 593.167 49.6002 593.127 49.5501C593.127 49.5801 593.117 49.6102 593.107 49.6503C593.157 49.6503 593.217 49.6603 593.267 49.6703H593.247Z" fill="#3CCE49"/>
<path d="M305.016 49.4599C305.016 53.7177 304.996 57.7851 305.016 61.8424C305.046 66.1202 305.136 70.388 305.186 74.6658C305.296 85.255 305.377 95.8443 305.507 106.434C305.527 108.187 305.727 109.96 305.537 111.703C305.056 116.071 301.601 118.816 297.084 118.536C293.369 118.305 290.345 114.899 290.294 110.832C290.234 105.632 290.194 100.443 290.154 95.2432C290.074 86.5674 289.994 77.9016 289.914 69.2259C289.844 61.8324 289.754 54.439 289.674 47.0455C289.593 39.9727 289.503 32.8998 289.443 25.827C289.413 22.0902 291.376 19.265 294.661 18.2031C297.986 17.1211 301.271 18.2732 303.494 21.3288C319.187 42.9281 334.88 64.5373 350.563 86.1366C350.813 86.4873 351.073 86.8279 351.534 87.429V85.9062C351.534 65.7596 351.534 45.6029 351.534 25.4563C351.534 21.3689 354.118 18.3333 358.094 17.6822C362.25 17.0109 366.276 20.0765 366.716 24.2541C366.756 24.6548 366.776 25.0556 366.776 25.4463C366.776 53.908 366.776 82.3798 366.776 110.842C366.776 116.913 360.537 120.539 355.3 117.544C354.238 116.933 353.437 116.061 352.726 115.079C337.063 93.51 321.39 71.9408 305.717 50.3716C305.527 50.1111 305.336 49.8607 305.036 49.4599H305.016Z" fill="#3CCE49"/>
<path d="M402.418 71.8807C402.418 59.4882 402.438 47.0956 402.398 34.7031C402.398 31.8279 402.258 28.9526 402.418 26.0774C402.559 23.4927 403.059 21.0583 405.273 19.3752C406.795 18.2131 408.607 17.8024 410.47 17.7923C417.36 17.7523 424.24 17.6521 431.13 17.8024C442.747 18.0628 452.632 24.9554 456.387 35.4044C459.342 43.6293 458.09 51.5137 453.974 59.0574C452.872 61.061 452.852 61.061 454.565 62.4936C459.852 66.9217 464.069 72.1011 465.941 78.8634C470.258 94.4918 461.915 114.238 441.586 117.724C437.95 118.345 434.245 118.195 430.57 118.235C424.811 118.295 419.043 118.235 413.274 118.185C411.832 118.175 410.38 118.185 408.968 117.975C405.022 117.383 402.839 114.729 402.499 110.25C402.448 109.569 402.438 108.888 402.438 108.217C402.438 96.1047 402.438 83.9927 402.438 71.8707L402.418 71.8807ZM418.282 87.479C418.282 92.1976 418.282 96.9162 418.282 101.635C418.282 102.126 418.111 102.697 418.983 102.687C425.102 102.587 431.241 103.007 437.349 102.516C448.155 101.645 454.555 90.5947 449.968 80.7869C447.805 76.1585 444.25 73.153 438.942 72.6521C435.917 72.3716 432.873 72.2514 429.838 72.2914C426.273 72.3315 422.718 72.4517 419.163 72.4618C418.362 72.4618 418.272 72.7823 418.272 73.4435C418.292 78.122 418.282 82.8005 418.282 87.479ZM418.282 44.9417C418.282 48.5383 418.302 52.1348 418.262 55.7213C418.262 56.4526 418.452 56.663 419.203 56.663C422.918 56.623 426.644 56.7031 430.359 56.633C437.82 56.4827 442.978 50.7423 442.347 43.3588C441.916 38.3497 438.341 34.5628 433.444 33.8215C428.677 33.1002 423.88 33.2505 419.093 33.1202C418.342 33.1002 418.262 33.4308 418.262 34.0419C418.282 37.6785 418.262 41.3151 418.262 44.9417H418.282Z" fill="#3CCE49"/>
<path d="M704.27 68.0137C704.851 67.8434 705.081 67.4426 705.381 67.1421C712.622 59.8889 719.853 52.6457 727.073 45.3825C735.305 37.0975 743.527 28.7924 751.749 20.5073C754.914 17.3115 759.741 17.2213 762.825 20.2969C765.84 23.3024 765.74 28.1111 762.605 31.2668C754.313 39.602 746.011 47.9372 737.719 56.2823C735.636 58.3761 733.583 60.52 731.46 62.5838C730.859 63.1648 730.909 63.5255 731.389 64.1466C741.745 77.521 752.08 90.9053 762.415 104.3C762.905 104.931 763.396 105.562 763.877 106.203C766.481 109.659 765.95 114.298 762.665 116.923C759.35 119.567 754.593 119.046 751.869 115.6C748.144 110.902 744.519 106.123 740.853 101.374C734.083 92.6084 727.313 83.8424 720.554 75.0665C720.123 74.5055 719.863 74.245 719.222 74.9062C714.485 79.735 709.728 84.5337 704.941 89.3124C704.4 89.8534 704.26 90.4044 704.26 91.1257C704.28 97.4472 704.3 103.759 704.26 110.08C704.24 113.246 702.768 115.61 699.913 116.973C697.149 118.285 694.445 117.975 691.992 116.141C690.099 114.729 689.057 112.775 689.057 110.371C689.057 82.0592 689.047 53.7577 689.057 25.4463C689.057 21.449 692.362 18.173 696.398 18.0628C700.484 17.9426 704.029 21.0883 704.21 25.0956C704.31 27.2896 704.26 29.4936 704.26 31.6876C704.26 43.7596 704.26 55.8415 704.26 68.0237L704.27 68.0137Z" fill="#3CCE49"/>
<path d="M258.548 50.8725C258.548 59.1876 258.678 67.5128 258.518 75.8279C258.157 95.4135 244.978 113.106 225.68 117.183C209.216 120.669 195.526 115.36 184.85 102.496C179.162 95.6439 176.208 87.5692 175.366 78.7031C175.196 76.8998 175.236 75.1166 175.236 73.3233C175.236 57.1339 175.236 40.9344 175.236 24.745C175.236 20.9381 177.299 18.0628 180.724 17.071C185.702 15.6284 190.489 19.3251 190.489 24.6548C190.509 35.8552 190.489 47.0455 190.489 58.2459C190.489 64.2067 190.378 70.1676 190.549 76.1184C190.879 88.3506 199.392 99.541 211.209 102.346C221.254 104.72 231.849 100.543 238.088 91.4863C241.363 86.7377 243.156 81.4581 243.166 75.6475C243.206 58.6967 243.216 41.7459 243.236 24.7951C243.236 21.0082 245.319 18.0929 248.714 17.0911C253.651 15.6284 258.498 19.275 258.508 24.5046C258.528 33.3005 258.508 42.0965 258.508 50.8925L258.548 50.8725Z" fill="#3CCE49"/>
<path d="M551.336 118.556C548.041 118.556 545.438 116.732 544.186 113.516C541.792 107.385 539.389 101.254 537.055 95.1029C536.705 94.1812 536.244 93.9508 535.313 93.9508C524.066 93.9809 512.81 93.9809 501.563 93.9508C500.692 93.9508 500.251 94.1412 499.921 95.0428C497.628 101.254 495.284 107.445 492.911 113.627C491.589 117.063 488.614 118.826 484.839 118.536C481.734 118.295 478.98 115.75 478.279 112.434C477.949 110.862 478.209 109.359 478.78 107.866C482.676 97.5674 486.541 87.2587 490.437 76.9599C497.227 58.9672 504.017 40.9845 510.807 22.9918C512.079 19.6056 514.803 17.592 518.108 17.582C521.362 17.5719 524.106 19.5455 525.388 22.8616C536.374 51.163 547.36 79.4645 558.336 107.766C560.189 112.555 557.886 117.213 553.129 118.405C552.538 118.556 551.937 118.536 551.346 118.556H551.336ZM530.676 78.7131C526.52 67.9936 522.414 57.4244 518.238 46.6448C518.077 47.0055 518.017 47.1257 517.967 47.2559C514.122 57.4344 510.296 67.623 506.42 77.8015C506.03 78.8333 506.571 78.7131 507.222 78.7131C514.502 78.7131 521.783 78.7131 529.064 78.7131C529.534 78.7131 530.005 78.7131 530.676 78.7131Z" fill="#3CCE49"/>
<path d="M68.38 33.1603C80.6679 33.1603 92.9659 33.1603 105.254 33.1603C107.117 33.1603 108.749 33.6712 109.811 35.3142C111.773 38.3197 110.021 42.1867 106.426 42.6776C105.634 42.7878 105.444 43.0182 105.444 43.7596C105.464 55.3907 105.464 67.0319 105.444 78.663C105.444 79.2541 105.574 79.5546 106.215 79.755C107.517 80.1758 108.278 81.5383 108.068 82.7705C107.828 84.1931 106.696 85.1548 105.224 85.2049C104.983 85.2049 104.743 85.2049 104.503 85.2049C80.3975 85.2049 56.2923 85.2049 32.1871 85.2049C31.2557 85.2049 30.3644 85.1849 29.6133 84.4736C27.9609 82.9107 28.4716 80.3561 30.6548 79.7049C31.3358 79.4945 31.5361 79.204 31.5261 78.5428C31.5161 66.9117 31.5161 55.2705 31.5261 43.6393C31.5261 43.0082 31.3859 42.7477 30.6748 42.6876C27.8207 42.4472 26.0881 40.4736 26.1582 37.6685C26.2183 35.214 28.1812 33.3306 30.8751 33.1603C31.2357 33.1403 31.5962 33.1603 31.9567 33.1603C44.0844 33.1603 56.2222 33.1603 68.3499 33.1603H68.38ZM52.647 61.2013C52.647 55.4408 52.6269 49.6903 52.667 43.9299C52.667 43.0383 52.5068 42.6776 51.4953 42.6976C48.2505 42.7678 45.0058 42.7577 41.7711 42.6976C40.8798 42.6876 40.6194 42.9281 40.6194 43.8297C40.6494 55.3406 40.6494 66.8616 40.6194 78.3725C40.6194 79.3042 40.9298 79.5046 41.7911 79.4945C44.9958 79.4444 48.2005 79.4344 51.3951 79.4945C52.3966 79.5146 52.677 79.224 52.667 78.2222C52.6169 72.5419 52.647 66.8716 52.647 61.1913V61.2013ZM95.6198 61.0109C95.6198 55.3005 95.5998 49.5801 95.6398 43.8698C95.6398 43.0082 95.4596 42.6776 94.5182 42.6976C91.3636 42.7577 88.199 42.7577 85.0343 42.6976C84.113 42.6776 83.9027 42.9882 83.9027 43.8597C83.9327 55.3306 83.9327 66.7914 83.9027 78.2623C83.9027 79.1639 84.0829 79.5246 85.0844 79.5046C88.1989 79.4344 91.3235 79.4444 94.4481 79.5046C95.4395 79.5246 95.6398 79.184 95.6398 78.2723C95.5998 72.5219 95.6198 66.7714 95.6198 61.0109ZM74.0583 61.0911C74.0583 55.3807 74.0382 49.6703 74.0783 43.9599C74.0783 42.9481 73.7879 42.6776 72.7964 42.6976C69.7219 42.7577 66.6374 42.7477 63.5529 42.6976C62.7117 42.6876 62.4713 42.9381 62.4713 43.7796C62.5014 55.3206 62.4914 66.8616 62.4713 78.4126C62.4713 79.2441 62.7117 79.5046 63.5529 79.4945C66.6274 79.4545 69.7119 79.4344 72.7964 79.4945C73.7979 79.5146 74.0783 79.214 74.0683 78.2222C74.0282 72.5118 74.0483 66.8015 74.0483 61.0911H74.0583Z" fill="#0E4160"/>
<path d="M68.2598 86.1867C82.2703 86.1867 96.2908 86.1867 110.301 86.1867C113.206 86.1867 115.078 88.0701 114.878 90.8251C114.758 92.5583 113.726 93.6403 112.194 94.3415C107.207 96.6057 102.229 98.8898 97.2422 101.164C89.5309 104.67 81.8096 108.177 74.0984 111.683C72.7163 112.314 71.3143 112.905 69.9623 113.597C68.2398 114.478 66.6274 114.338 64.9249 113.516C60.7889 111.513 56.6128 109.589 52.4467 107.636C43.3234 103.358 34.2 99.0802 25.0767 94.8124C23.8349 94.2313 22.6031 93.6503 21.902 92.378C20.4199 89.653 22.3727 86.3971 25.6175 86.2068C26.4988 86.1567 27.38 86.1967 28.2613 86.1967C41.5908 86.1967 54.9303 86.1967 68.2598 86.1967V86.1867Z" fill="#0E4160"/>
<path d="M68.1296 20.8579C82.0199 20.8579 95.9102 20.8579 109.801 20.8579C112.064 20.8579 112.515 21.3188 112.515 23.6129C112.515 25.0155 112.535 26.408 112.515 27.8106C112.494 29.2231 111.793 29.9044 110.361 29.9845C110.081 29.9945 109.801 29.9845 109.52 29.9845C81.9398 29.9845 54.3595 29.9845 26.7791 29.9845C24.1854 29.9845 23.6245 29.4235 23.6245 26.8087C23.6245 25.6867 23.6145 24.5747 23.6245 23.4526C23.6546 21.4991 24.2855 20.8679 26.2283 20.8679C40.1988 20.8679 54.1692 20.8679 68.1396 20.8679L68.1296 20.8579Z" fill="#0E4160"/>
<path d="M593.247 49.6701C593.197 49.6701 593.137 49.6601 593.087 49.6501C593.087 49.6201 593.097 49.5901 593.107 49.5501C593.147 49.6001 593.187 49.6401 593.227 49.6901L593.247 49.6701Z" fill="#FEFEFE"/>
<path d="M52.647 61.2013C52.647 66.8816 52.6269 72.5519 52.667 78.2322C52.667 79.2341 52.3966 79.5246 51.3951 79.5046C48.1905 79.4444 44.9858 79.4545 41.7911 79.5046C40.9298 79.5146 40.6194 79.3242 40.6194 78.3825C40.6494 66.8716 40.6494 55.3506 40.6194 43.8397C40.6194 42.9381 40.8798 42.6876 41.7711 42.7077C45.0158 42.7577 48.2606 42.7678 51.4953 42.7077C52.4967 42.6876 52.667 43.0483 52.667 43.9399C52.637 49.7004 52.647 55.4508 52.647 61.2113V61.2013Z" fill="#3CCE49"/>
<path d="M95.6198 61.0109C95.6198 66.7614 95.5998 72.5219 95.6398 78.2723C95.6398 79.184 95.4395 79.5246 94.4481 79.5046C91.3335 79.4444 88.209 79.4444 85.0844 79.5046C84.0829 79.5246 83.9027 79.1539 83.9027 78.2623C83.9327 66.7914 83.9327 55.3306 83.9027 43.8597C83.9027 42.9882 84.113 42.6776 85.0343 42.6976C88.199 42.7577 91.3536 42.7577 94.5182 42.6976C95.4596 42.6776 95.6398 43.0082 95.6398 43.8698C95.6098 49.5801 95.6198 55.3005 95.6198 61.0109Z" fill="#3CCE49"/>
<path d="M74.0583 61.0911C74.0583 66.8015 74.0383 72.5118 74.0783 78.2222C74.0783 79.214 73.8079 79.5146 72.8064 79.4945C69.732 79.4344 66.6474 79.4444 63.5629 79.4945C62.7217 79.5046 62.4814 79.2441 62.4814 78.4126C62.5014 66.8716 62.5014 55.3306 62.4814 43.7796C62.4814 42.9381 62.7217 42.6876 63.5629 42.6976C66.6374 42.7477 69.7219 42.7577 72.8064 42.6976C73.7979 42.6776 74.0983 42.9481 74.0883 43.9599C74.0383 49.6703 74.0683 55.3807 74.0683 61.0911H74.0583Z" fill="#3CCE49"/>
</svg>

<svg width="766" height="132" viewBox="0 0 766 132" fill="none" xmlns="http://www.w3.org/2000/svg"><path d="M133.125 66.24v41.145c-.03 10.77-7.051 19.926-17.376 22.792-2.053.571-4.156.831-6.279.831-27.55 0-55.09.03-82.641-.01-13.209-.02-23.625-10.429-23.645-23.623v-82.52c0-13.194 10.425-23.593 23.635-23.613h82.641c13.209.02 23.605 10.429 23.645 23.623l.01 41.385.01-.01zM68.38 33.16H31.987c-.361 0-.721-.02-1.082 0-2.694.17-4.657 2.044-4.717 4.508-.07 2.805 1.662 4.779 4.517 5.019.711.06.851.321.851.952v34.904c0 .661-.19.952-.871 1.162-2.183.661-2.694 3.206-1.042 4.769.751.711 1.632.731 2.574.731h72.316.721c1.472-.05 2.594-1.012 2.844-2.434a2.77 2.77 0 0 0-1.853-3.016c-.641-.21-.771-.501-.771-1.092V43.76c0-.741.19-.972.982-1.082 3.595-.491 5.347-4.348 3.385-7.363-1.062-1.633-2.704-2.154-4.557-2.154H68.41h-.03zm-.12 53.026H28.261c-.881 0-1.763-.04-2.644.01-3.245.19-5.208 3.446-3.715 6.171.701 1.272 1.933 1.853 3.175 2.435l27.37 12.824 12.478 5.88c1.703.822 3.325.972 5.037.081 1.352-.692 2.754-1.293 4.136-1.914l23.144-10.519 14.952-6.822c1.542-.701 2.564-1.783 2.684-3.516.2-2.755-1.672-4.638-4.577-4.638H68.26v.01zm-.13-65.329H26.218c-1.933 0-2.574.631-2.604 2.585-.02 1.122 0 2.234 0 3.356 0 2.615.561 3.176 3.155 3.176h82.741c.281 0 .561.01.841 0 1.432-.08 2.133-.761 2.153-2.174v-4.198c0-2.294-.45-2.755-2.713-2.755H68.12l.01.01zM593.247 49.67c-.27 1.703-.11 3.426-.1 5.129l.13 13.665.241 25.777.23 16.18c.18 5.169-4.006 8.155-7.321 8.145-4.696 0-7.911-3.156-7.971-7.995l-.15-17.261-.261-25.777-.22-22.18-.231-19.415c-.03-3.827 1.903-6.622 5.248-7.714s6.58.05 8.813 3.136l46.859 64.517c.29.401.5.892 1.131 1.262v-1.473-59.849c0-4.378 2.524-7.463 6.61-8.125 4.356-.711 8.542 2.755 8.693 7.183.01.321 0 .641 0 .962v84.554c0 3.897-1.933 6.792-5.248 7.864-3.355 1.082-6.64-.11-8.913-3.246l-46.708-64.327c-.251-.351-.421-.782-.832-.992-.04-.05-.08-.09-.12-.14 0 .03-.01.06-.02.1.05 0 .11.01.16.02h-.02zm-288.231-.21v12.383l.17 12.823.321 31.768c.02 1.753.22 3.526.03 5.269-.481 4.368-3.936 7.113-8.453 6.833-3.715-.231-6.739-3.637-6.79-7.704l-.14-15.589-.24-26.017-.24-22.18-.231-21.218c-.03-3.737 1.933-6.562 5.218-7.624 3.325-1.082 6.61.07 8.833 3.126l47.069 64.808c.25.351.51.691.971 1.292v-1.523-60.45c0-4.087 2.584-7.123 6.56-7.774 4.156-.671 8.182 2.394 8.622 6.572a12.05 12.05 0 0 1 .06 1.192v85.396c0 6.071-6.239 9.697-11.476 6.702-1.062-.611-1.863-1.483-2.574-2.465l-47.009-64.707-.681-.912h-.02zm97.402 22.421l-.02-37.178.02-8.626c.141-2.585.641-5.019 2.855-6.702 1.522-1.162 3.334-1.573 5.197-1.583l20.66.01c11.617.26 21.502 7.153 25.257 17.602 2.955 8.225 1.703 16.109-2.413 23.653-1.102 2.004-1.122 2.004.591 3.436 5.287 4.428 9.504 9.608 11.376 16.37 4.317 15.628-4.026 35.375-24.355 38.861-3.636.621-7.341.471-11.016.511-5.759.06-11.527 0-17.296-.05-1.442-.01-2.894 0-4.306-.21-3.946-.592-6.129-3.246-6.469-7.725a27.22 27.22 0 0 1-.061-2.033V71.871l-.02.01zm15.864 15.598v14.156c0 .491-.171 1.062.701 1.052 6.119-.1 12.258.32 18.366-.171 10.806-.871 17.206-11.921 12.619-21.729-2.163-4.628-5.718-7.634-11.026-8.135a86.36 86.36 0 0 0-9.104-.361l-10.675.17c-.801 0-.891.321-.891.982l.01 14.035zm0-42.537l-.02 10.78c0 .731.19.942.941.942l11.156-.03c7.461-.15 12.619-5.891 11.988-13.274-.431-5.009-4.006-8.796-8.903-9.537-4.767-.721-9.564-.571-14.351-.701-.751-.02-.831.311-.831.922v10.9h.02zM704.27 68.014c.581-.17.811-.571 1.111-.872l21.692-21.76 24.676-24.875c3.165-3.196 7.992-3.286 11.076-.21 3.015 3.005 2.915 7.814-.22 10.97l-24.886 25.016-6.259 6.301c-.601.581-.551.942-.071 1.563l31.026 40.153 1.462 1.903c2.604 3.456 2.073 8.095-1.212 10.72-3.315 2.644-8.072 2.123-10.796-1.323l-11.016-14.226-20.299-26.307c-.431-.561-.691-.822-1.332-.16l-14.281 14.406c-.541.541-.681 1.092-.681 1.813v18.954c-.02 3.166-1.492 5.53-4.347 6.893-2.764 1.312-5.468 1.002-7.921-.832-1.893-1.412-2.935-3.366-2.935-5.77V25.446c0-3.997 3.305-7.273 7.341-7.384 4.086-.12 7.631 3.026 7.812 7.033.1 2.194.05 4.398.05 6.592v36.336l.01-.01zM258.548 50.873l-.03 24.955c-.361 19.586-13.54 37.278-32.838 41.355-16.464 3.486-30.154-1.823-40.83-14.687-5.688-6.852-8.642-14.927-9.484-23.793-.17-1.803-.13-3.587-.13-5.38V24.745c0-3.807 2.063-6.682 5.488-7.674 4.978-1.443 9.765 2.254 9.765 7.584v33.591l.06 17.872c.33 12.232 8.843 23.423 20.66 26.228 10.045 2.374 20.64-1.803 26.879-10.86 3.275-4.749 5.068-10.028 5.078-15.839l.07-50.852c0-3.787 2.083-6.702 5.478-7.704 4.937-1.463 9.784 2.184 9.794 7.413v26.388l.04-.02zm292.788 67.683c-3.295 0-5.898-1.824-7.15-5.04l-7.131-18.413c-.35-.922-.811-1.152-1.742-1.152h-33.75c-.871 0-1.312.19-1.642 1.092l-7.01 18.584c-1.322 3.436-4.297 5.199-8.072 4.909-3.105-.241-5.859-2.786-6.56-6.102-.33-1.572-.07-3.075.501-4.568l11.657-30.906 20.37-53.968c1.272-3.386 3.996-5.4 7.301-5.41 3.254-.01 5.998 1.963 7.28 5.28l32.948 84.904c1.853 4.789-.45 9.447-5.207 10.639-.591.151-1.192.131-1.783.151h-.01zm-20.66-39.843l-12.438-32.068-.271.611-11.547 30.546c-.39 1.032.151.912.802.912h21.842 1.612z" fill="#3cce49"/><path d="M68.38 33.16h36.874c1.863 0 3.495.511 4.557 2.154 1.962 3.005.21 6.873-3.385 7.363-.792.11-.982.341-.982 1.082v34.903c0 .591.13.892.771 1.092a2.76 2.76 0 0 1 1.853 3.016c-.24 1.423-1.372 2.384-2.844 2.434h-.721-72.316c-.931 0-1.823-.02-2.574-.731-1.652-1.563-1.142-4.118 1.042-4.769.681-.21.881-.501.871-1.162V43.639c0-.631-.14-.892-.851-.952-2.854-.24-4.587-2.214-4.517-5.019.06-2.455 2.023-4.338 4.717-4.508.361-.02.721 0 1.082 0H68.35h.03zM52.647 61.201l.02-17.271c0-.892-.16-1.252-1.172-1.232h-9.724c-.891-.01-1.152.23-1.152 1.132v34.543c0 .932.31 1.132 1.172 1.122h9.604c1.002.02 1.282-.27 1.272-1.272l-.02-17.031v.01zm42.973-.19l.02-17.141c0-.862-.18-1.192-1.122-1.172a249.45 249.45 0 0 1-9.484 0c-.921-.02-1.132.291-1.132 1.162v34.403c0 .902.18 1.262 1.182 1.242h9.364c.991.02 1.192-.321 1.192-1.232l-.02-17.261zm-21.561.08l.02-17.131c0-1.012-.29-1.282-1.282-1.262h-9.244c-.841-.01-1.082.24-1.082 1.082v34.633c0 .832.24 1.092 1.082 1.082h9.244c1.001.02 1.282-.281 1.272-1.272l-.02-17.131h.01zM68.26 86.187h42.041c2.905 0 4.777 1.883 4.577 4.638-.12 1.733-1.152 2.815-2.684 3.516l-14.952 6.823-23.144 10.519-4.136 1.914c-1.722.881-3.335.741-5.037-.081l-12.478-5.88-27.37-12.824c-1.242-.581-2.474-1.162-3.175-2.434-1.482-2.725.471-5.981 3.715-6.171.881-.05 1.762-.01 2.644-.01H68.26v-.01zm-.13-65.329h41.671c2.263 0 2.714.461 2.714 2.755v4.198c-.021 1.412-.722 2.094-2.154 2.174h-.841-82.741c-2.594 0-3.155-.561-3.155-3.176v-3.356c.03-1.954.661-2.585 2.604-2.585H68.14l-.01-.01z" fill="#0e4160"/><path d="M593.247 49.67c-.05 0-.11-.01-.16-.02 0-.03.01-.06.02-.1l.12.14.02-.02z" fill="#fefefe"/><path d="M52.647 61.201l.02 17.031c0 1.002-.27 1.292-1.272 1.272-3.205-.06-6.409-.05-9.604 0-.861.01-1.172-.18-1.172-1.122V43.84c0-.902.26-1.152 1.152-1.132h9.724c1.001-.02 1.172.341 1.172 1.232l-.02 17.271v-.01zm42.973-.19l.02 17.261c0 .912-.2 1.252-1.192 1.232a243.59 243.59 0 0 0-9.364 0c-1.002.02-1.182-.351-1.182-1.242V43.86c0-.871.21-1.182 1.132-1.162a249.45 249.45 0 0 0 9.484 0c.941-.02 1.122.311 1.122 1.172l-.02 17.141zm-21.562.08l.02 17.131c0 .992-.27 1.292-1.272 1.272-3.074-.06-6.159-.05-9.243 0-.841.01-1.081-.25-1.081-1.082V43.78c0-.842.24-1.092 1.081-1.082h9.243c.992-.02 1.292.25 1.282 1.262l-.02 17.131h-.01z" fill="#3cce49"/></svg>
